jsapp/svg-icons/date.svg

<svg height="40" viewBox="0 0 40 40" width="40" xmlns="http://www.w3.org/2000/svg"><path d="m29 12c1.104 0 2 .896 2 2v15c0 1.104-.896 2-2 2h-18c-1.104 0-2-.896-2-2v-15c0-1.104.896-2 2-2h2v2h-2v15h18v-15h-3v2h-2v-6h2v2zm-13 2v2h-2v-6h2v2h7v2zm1 4v4h-4v-4zm5 0v4h-4v-4zm1 4v-4h4v4zm-10 5v-4h4v4zm5 0v-4h4v4z" fill-rule="evenodd"/></svg>

<?xml version="1.0" encoding="UTF-8"?>
<svg width="40px" height="40px" viewBox="0 0 40 40" version="1.1" xmlns="http://www.w3.org/2000/svg" xmlns:xlink="http://www.w3.org/1999/xlink">
    <!-- Generator: Sketch 50.2 (55047) - http://www.bohemiancoding.com/sketch -->
    <title>Icons/date</title>
    <desc>Created with Sketch.</desc>
    <defs>
        <path d="M29,12 C30.104,12 31,12.896 31,14 L31,29 C31,30.104 30.104,31 29,31 L11,31 C9.896,31 9,30.104 9,29 L9,14 C9,12.896 9.896,12 11,12 L13,12 L13,14 L11,14 L11,29 L29,29 L29,14 L26,14 L26,16 L24,16 L24,10 L26,10 L26,12 L29,12 Z M16,14 L16,16 L14,16 L14,10 L16,10 L16,12 L23,12 L23,14 L16,14 Z M17,18 L17,22 L13,22 L13,18 L17,18 Z M22,18 L22,22 L18,22 L18,18 L22,18 Z M23,22 L23,18 L27,18 L27,22 L23,22 Z M13,27 L13,23 L17,23 L17,27 L13,27 Z M18,27 L18,23 L22,23 L22,27 L18,27 Z" id="path-1"></path>
    </defs>
    <g id="Icons/date" stroke="none" stroke-width="1" fill="none" fill-rule="evenodd">
        <mask id="mask-2" fill="white">
            <use xlink:href="#path-1"></use>
        </mask>
        <use id="Mask" fill="#000000" xlink:href="#path-1"></use>
    </g>
</svg>
